!!!COM: Shacklady, Thomas
!!!CDT: b.1917
!!!OTL: National Anthem, Papua New Guinea
!!!ENC: Davis, Matthew J.
!!Vocal Line Only
**kern
*clefG2
*k[f#]
*G:
*M4/4
=1-
8.d
16d
=2
4g
8.d
16g
4b
8.b
16g
=3
2.d
8.g
16b
=4
4dd
8.dd
16b
4g
8.a
16b
=5
2.a
8.a
16b
=6
4cc
8.cc
16cc
4cc
8b
8a
=7
2.b
8.g
16b
=8
2a
4g
4f#
=9
2.g
==10
!Chorus
8.dd
16dd
=11
4dd
8.cc#
16ee
4dd
8b
8g
=12
2.a
8.a
16b
=13
2.cc
8b
8a
=14
2.b
8.d
16d
=15
4.g
8f#
8g
8b
8a
=16
2.cc
8.ee
16ee
=17
4.dd
8cc
4b
4a
=18
2.g
==|!
*-
